img/arrow-31.svg

<svg fill="none" height="13" viewBox="0 0 17 13" width="17" xmlns="http://www.w3.org/2000/svg"><path d="m15.8718 7.09866c.3307-.33063.3307-.86669 0-1.19732l-5.3879-5.387899c-.3306-.330629-.86664-.330629-1.19727 0-.33062.330628-.33062.866679 0 1.197309l4.78927 4.78925-4.78927 4.7892c-.33062.3307-.33062.8667 0 1.1974.33063.3306.86667.3306 1.19727 0zm-14.14464-1.44529c-.46758 0-.846632.37905-.846632.84663s.379052.84663.846632.84663zm13.54604 0h-13.54604v1.69326h13.54604z" fill="#0080ff"/></svg>

<svg width="17" height="13" viewBox="0 0 17 13" fill="none" xmlns="http://www.w3.org/2000/svg">
<path d="M15.8718 7.09866C16.2025 6.76803 16.2025 6.23197 15.8718 5.90134L10.4839 0.513441C10.1533 0.182812 9.61726 0.182812 9.28663 0.513441C8.95601 0.844069 8.95601 1.38012 9.28663 1.71075L14.0759 6.5L9.28663 11.2892C8.95601 11.6199 8.95601 12.1559 9.28663 12.4866C9.61726 12.8172 10.1533 12.8172 10.4839 12.4866L15.8718 7.09866ZM1.72716 5.65337C1.25958 5.65337 0.880528 6.03242 0.880528 6.5C0.880528 6.96758 1.25958 7.34663 1.72716 7.34663V5.65337ZM15.2732 5.65337L1.72716 5.65337V7.34663L15.2732 7.34663V5.65337Z" fill="#0080FF"/>
</svg>
